assets/img/caniusevia.svg

<?xml version="1.0" encoding="UTF-8"?>
<svg viewBox="0 0 300 88" version="1.1" xmlns="http://www.w3.org/2000/svg" xmlns:xlink="http://www.w3.org/1999/xlink">
  <rect fill="#AD7070" x="0" y="0" width="300" height="88" rx="10"></rect>
  <g transform="translate(91.000000, 7.000000)" fill="#FFFFFF" fill-rule="nonzero">
    <path d="M12.4365589,8.41087203 L25.3298716,46.8685119 L38.4454829,8.18857353 C39.1123783,6.18788705 39.5569754,4.85409607 40.0015725,3.9649021 C40.4461694,3.07570811 40.8907665,2.40881262 41.7799604,1.74191712 C42.6691543,1.07502164 43.5583483,0.852723139 44.8921393,0.852723139 C45.7813333,0.852723139 46.8928257,1.07502164 47.5597214,1.51961863 C48.2266168,1.96421562 49.1158107,2.63111112 49.5604078,3.52030511 C50.0050047,4.40949907 50.4496017,5.07639457 50.4496017,5.96558856 C50.4496017,6.63248405 50.4496017,7.07708104 50.2273032,7.74397654 L49.5604078,9.74466299 L48.8935122,11.7453495 L35.1110055,49.0914969 C34.6664086,50.4252879 34.2218115,51.9813772 33.5549161,53.0928697 C32.8880205,54.2043622 32.4434236,55.5381532 31.776528,56.4273472 C31.1096326,57.3165414 30.2204387,58.2057353 29.1089462,58.8726307 C27.9974537,59.5395261 26.6636627,59.7618247 25.1075731,59.7618247 C23.5514837,59.7618247 22.2176927,59.5395261 21.1062002,58.8726307 C19.9947077,58.2057353 19.1055137,57.5388397 18.4386183,56.4273472 C17.7717228,55.3158547 17.1048273,54.2043622 16.6602303,53.0928697 C16.2156333,51.9813772 15.7710363,50.4252879 15.1041408,49.0914969 L1.76623102,11.967648 L1.09933553,9.96696149 L0.432440044,7.96627503 C0.210141547,7.29937954 0.210141547,6.41018555 0.210141547,5.96558856 C0.210141547,4.63179757 0.654738541,3.52030511 1.76623102,2.40881262 C2.87772352,1.29732013 4.21151448,0.852723139 5.76760396,0.852723139 C7.76829044,0.852723139 9.1020814,1.51961863 9.99127539,2.63111112 C10.8804694,3.7426036 11.7696634,5.74329006 12.4365589,8.41087203 Z" />
    <path d="M47.1151243,59.7618247 L46.2259303,59.3172278 C43.7806468,58.4280339 42.6691543,55.7604518 43.5583483,53.3151683 L62.8983177,3.07570811 C63.7875116,0.630424643 66.4550934,-0.481067839 68.900377,0.408126146 L69.7895709,0.852723139 C72.2348544,1.74191712 73.3463469,4.40949907 72.457153,6.85478255 L53.1171838,57.0942428 C52.0056913,59.3172278 49.3381093,60.6510186 47.1151243,59.7618247 Z" />
    <path d="M106.024226,52.4259743 L103.356644,45.3124225 L80.0153018,45.3124225 L77.1254215,52.6482729 C76.013929,55.5381532 75.1247348,57.5388397 74.4578394,58.4280338 C73.790944,59.3172278 72.457153,59.9841232 70.6787648,59.9841232 C69.1226755,59.9841232 68.011183,59.5395261 66.8996905,58.4280338 C65.788198,57.3165414 65.1213026,56.2050489 65.1213026,54.8712578 C65.1213026,53.9820639 65.3436009,53.3151683 65.5658995,52.4259743 C65.788198,51.5367804 66.2327951,50.4252879 66.8996905,48.8691983 L81.5713912,11.523051 C82.0159883,10.4115585 82.4605853,9.07776752 83.1274807,7.74397654 C83.7943761,6.41018555 84.2389732,5.07639457 84.9058686,3.9649021 C85.5727643,2.85340961 86.4619582,2.18651412 87.5734507,1.51961863 C88.6849432,0.852723139 90.0187342,0.630424643 91.5748236,0.630424643 C93.1309131,0.630424643 94.4647042,0.852723139 95.5761967,1.51961863 C96.6876891,2.18651412 97.5768831,2.85340961 98.2437785,3.9649021 C98.9106741,5.07639457 99.5775695,5.96558856 100.022166,7.07708104 C100.466763,8.18857353 101.133659,9.74466299 101.800554,11.523051 L116.472255,48.4246015 C117.583748,51.3144818 118.250643,53.3151683 118.250643,54.6489593 C118.250643,55.9827503 117.806046,57.0942428 116.694554,58.2057353 C115.583061,59.3172278 114.24927,59.7618246 112.693181,59.7618246 C111.803987,59.7618246 110.914793,59.5395261 110.247897,59.3172278 C109.581002,59.0949292 109.136405,58.6503322 108.691808,57.9834368 C108.247211,57.3165414 107.802614,56.6496457 107.358017,55.3158547 C106.91342,53.9820639 106.246524,53.3151683 106.024226,52.4259743 L106.024226,52.4259743 Z M82.9051822,36.6427812 L100.022166,36.6427812 L91.352525,12.856842 L82.9051822,36.6427812 L82.9051822,36.6427812 Z" />
    <circle cx="26.4413641" cy="69.765257" r="4.22367143" />
    <path d="M76.2362273,72.877436 L41.5576618,72.877436 C40.2238708,72.877436 39.3346769,71.988242 39.3346769,70.654451 L39.3346769,69.0983616 C39.3346769,67.7645706 40.2238708,66.8753767 41.5576618,66.8753767 L76.2362273,66.8753767 C77.5700183,66.8753767 78.4592122,67.7645706 78.4592122,69.0983616 L78.4592122,70.654451 C78.4592122,71.7659435 77.5700183,72.877436 76.2362273,72.877436 Z" />
    <circle cx="91.352525" cy="69.765257" r="4.22367143" />
  </g>
</svg>

<svg xmlns="http://www.w3.org/2000/svg" version="1.1" viewBox="0 0 300 88"><rect fill="#AD7070" width="300" height="88" x="0" y="0" rx="10"/><g fill="#FFF" fill-rule="nonzero" transform="translate(91 7)"><path d="M12.437 8.41 25.33 46.87 38.445 8.19c.667-2.001 1.112-3.335 1.557-4.224.444-.89.889-1.556 1.778-2.223.89-.667 1.778-.89 3.112-.89.89 0 2 .223 2.668.668.667.444 1.556 1.111 2 2 .445.89.89 1.556.89 2.446 0 .666 0 1.111-.223 1.778l-.667 2-.666 2.001L35.11 49.091c-.445 1.334-.89 2.89-1.556 4.002-.667 1.111-1.112 2.445-1.778 3.334-.667.89-1.557 1.779-2.668 2.446-1.112.667-2.445.889-4.001.889-1.557 0-2.89-.222-4.002-.89-1.111-.666-2-1.333-2.667-2.445-.667-1.111-1.334-2.223-1.779-3.334-.444-1.112-.889-2.668-1.556-4.002L1.766 11.968 1.1 9.967l-.667-2C.21 7.298.21 6.41.21 5.965c0-1.334.445-2.446 1.556-3.557C2.878 1.297 4.212.853 5.768.853c2 0 3.334.667 4.223 1.778.89 1.112 1.779 3.112 2.446 5.78Zm34.678 51.352-.89-.445c-2.444-.889-3.556-3.557-2.667-6.002l19.34-50.24C63.788.63 66.455-.48 68.9.409l.89.445c2.445.889 3.556 3.556 2.667 6.002l-19.34 50.24c-1.111 2.222-3.779 3.556-6.002 2.667Zm58.91-7.336-2.668-7.114H80.015l-2.89 7.336c-1.111 2.89-2 4.89-2.667 5.78-.667.89-2 1.556-3.78 1.556-1.555 0-2.667-.444-3.778-1.556-1.112-1.111-1.779-2.223-1.779-3.557 0-.889.223-1.556.445-2.445.222-.89.667-2 1.334-3.557l14.67-37.346c.445-1.111.89-2.445 1.556-3.779.667-1.334 1.112-2.668 1.779-3.78.667-1.11 1.556-1.777 2.667-2.444C88.685.853 90.02.63 91.575.63c1.556 0 2.89.223 4.001.89 1.112.667 2 1.333 2.668 2.445.667 1.111 1.334 2 1.778 3.112.445 1.112 1.112 2.668 1.779 4.446l14.671 36.902c1.112 2.89 1.779 4.89 1.779 6.224 0 1.334-.445 2.445-1.556 3.557-1.112 1.111-2.446 1.556-4.002 1.556-.889 0-1.778-.222-2.445-.445-.667-.222-1.112-.667-1.556-1.334-.445-.666-.89-1.333-1.334-2.667-.445-1.334-1.111-2-1.334-2.89Zm-23.12-15.783h17.117l-8.67-23.786-8.447 23.786Z"/><circle cx="26.441" cy="69.765" r="4.224"/><path d="M76.236 72.877H41.558c-1.334 0-2.223-.889-2.223-2.223v-1.556c0-1.333.889-2.223 2.223-2.223h34.678c1.334 0 2.223.89 2.223 2.223v1.556c0 1.112-.889 2.223-2.223 2.223Z"/><circle cx="91.353" cy="69.765" r="4.224"/></g></svg>
